X: 30913
T: Over The Hills And Far Away
R: jig
M: 6/8
K: Eminor
|:GEE AEE|BEE cBA|B2E EDE|GAG FEF|
GEE AEE|BEE cAB|c2A ABc|1 dcB AGF:|2 dcB AGA||
|:Bee e2f|edB AGA|Bee e2f|edB d3|Bee e2f|
gfe fed|1 edB AGA|B2E E3:|2 edB dBA|B2G AGF||

